icons/arrow/right.svg

<svg width="32" height="32" viewBox="0 0 32 32" fill="none" xmlns="http://www.w3.org/2000/svg">
<path fill-rule="evenodd" clip-rule="evenodd" d="M27.0404 15.2929L18.0404 6.29289L16.6262 7.70711L23.9191 15H4V17H23.9191L16.6262 24.2929L18.0404 25.7071L27.0404 16.7071L27.7475 16L27.0404 15.2929Z" fill="black"/>
</svg>

<svg viewBox="0 0 32 32" xmlns="http://www.w3.org/2000/svg"><path fill-rule="evenodd" d="M27.04 15.293l-9-9-1.414 1.414L23.92 15H4v2h19.92l-7.294 7.293 1.414 1.414 9-9 .707-.707-.707-.707z"/></svg>
